Yaru++-Dark/apps/16/klines.svg

<svg height="16" viewBox="0 0 16 16" width="16" xmlns="http://www.w3.org/2000/svg">
  <path d="m2.6425787 1.2851555c-1.1832493.0001542-2.14242389.9593288-2.14257805 2.1425781-.00092496 1.184012.95856565 2.1443774 2.14257805 2.1445313 1.1840124-.000154 2.143503-.9605193 2.142578-2.1445313-.0001542-1.1832493-.9593287-2.1424239-2.142578-2.1425781zm5.400391 4.7246094c-1.1832492.0001542-2.1424236.9593285-2.142578 2.1425777.0001534 1.1832498.9593282 2.1424254 2.142578 2.1425794 1.1832499-.000154 2.1424253-.9593295 2.1425783-2.1425794-.000154-1.1832493-.959329-2.1424237-2.1425783-2.1425777zm5.3144533 4.7050781c-1.18325.000154-2.142424.959329-2.142578 2.142579.000154 1.183249.959329 2.142424 2.142578 2.142578 1.183249-.000154 2.142424-.959329 2.142578-2.142578-.000154-1.18325-.959328-2.142425-2.142578-2.142579z" fill="#f2f2f7"/>
</svg>

<svg xmlns="http://www.w3.org/2000/svg" width="16" height="16" version="1.1" viewBox="0 0 16 16">
 <defs>
  <style id="current-color-scheme" type="text/css">
   .ColorScheme-Text { color: #f2f2f7; } .ColorScheme-Highlight { color: #5294e2; }
  </style>
 </defs>
 <path fill="currentColor" class="ColorScheme-Text" d="M 2.6425787,1.2851555 C 1.4593294,1.2853097 0.50015481,2.2444843 0.50000065,3.4277336 0.49907569,4.6117456 1.4585663,5.572111 2.6425787,5.5722649 3.8265911,5.5721109 4.7860817,4.6117456 4.7851567,3.4277336 4.7850025,2.2444843 3.825828,1.2853097 2.6425787,1.2851555 Z m 5.400391,4.7246094 C 6.8597205,6.0099191 5.9005461,6.9690934 5.9003917,8.1523426 5.9005451,9.3355924 6.8597199,10.294768 8.0429697,10.294922 9.2262196,10.294768 10.185395,9.3355925 10.185548,8.1523426 10.185394,6.9690933 9.226219,6.0099189 8.0429697,6.0097649 Z m 5.3144533,4.7050781 c -1.18325,1.54e-4 -2.142424,0.959329 -2.142578,2.142579 1.54e-4,1.183249 0.959329,2.142424 2.142578,2.142578 1.183249,-1.54e-4 2.142424,-0.959329 2.142578,-2.142578 -1.54e-4,-1.18325 -0.959328,-2.142425 -2.142578,-2.142579 z"/>
</svg>
